icons-dark/applets/48/weather-mist.svg

<?xml version="1.0" encoding="UTF-8" standalone="no"?>
<svg
   xmlns:dc="http://purl.org/dc/elements/1.1/"
   xmlns:cc="http://creativecommons.org/ns#"
   xmlns:rdf="http://www.w3.org/1999/02/22-rdf-syntax-ns#"
   xmlns:svg="http://www.w3.org/2000/svg"
   xmlns="http://www.w3.org/2000/svg"
   xmlns:xlink="http://www.w3.org/1999/xlink"
   version="1.1"
   id="svg2"
   height="48"
   width="48">
  <defs
     id="defs4">
    <linearGradient
       id="0">
      <stop
         id="stop7"
         stop-color="#eff1f1" />
      <stop
         id="stop9"
         stop-color="#b0b8b8"
         offset="1" />
    </linearGradient>
    <linearGradient
       gradientTransform="translate(-384.57147,-501.79797)"
       gradientUnits="userSpaceOnUse"
       y2="539.79797"
       x2="418.57144"
       y1="511.79797"
       x1="418.57147"
       id="1"
       xlink:href="#0" />
  </defs>
  <metadata
     id="metadata24">
    <rdf:RDF>
      <cc:Work
         rdf:about="">
        <dc:format>image/svg+xml</dc:format>
        <dc:type
           rdf:resource="http://purl.org/dc/dcmitype/StillImage" />
        <dc:title></dc:title>
      </cc:Work>
    </rdf:RDF>
  </metadata>
  <path
     d="m 10,10 c -1.1079989,0 -2,0.892001 -2,2 0,1.107999 0.8920011,2 2,2 l 19,0 c 1.107999,0 2,-0.892001 2,-2 0,-1.107999 -0.892001,-2 -2,-2 l -19,0 z m 5,8 c -1.107993,0 -2,0.892007 -2,2 0,1.107993 0.892007,2 2,2 l 25,0 c 1.107993,0 2,-0.892007 2,-2 0,-1.107993 -0.892007,-2 -2,-2 l -25,0 z m -9,8 c -1.1080073,0 -2,0.891993 -2,2 0,1.108007 0.8919927,2 2,2 l 25,0 c 1.108007,0 2,-0.891993 2,-2 0,-1.108007 -0.891993,-2 -2,-2 L 6,26 Z m 7,8 c -1.107993,0 -2,0.892007 -2,2 0,1.107993 0.892007,2 2,2 l 29,0 c 1.107993,0 2,-0.892007 2,-2 0,-1.107993 -0.892007,-2 -2,-2 l -29,0 z"
     id="path34"
     style="fill:url(#1)" />
  <path
     d="M 8.0703125,11.5 C 8.0290105,11.660591 8,11.826165 8,12 c 0,1.108 0.892,2 2,2 l 19,0 c 1.108,0 2,-0.892 2,-2 0,-0.173835 -0.02901,-0.339409 -0.07031,-0.5 C 30.707736,12.362993 29.934165,13 29,13 L 10,13 C 9.0658348,13 8.2922638,12.362993 8.0703125,11.5 Z m 4.9999995,8 C 13.02901,19.66059 13,19.826167 13,20 c 0,1.10799 0.89201,2 2,2 l 25,0 c 1.10799,0 2,-0.89201 2,-2 0,-0.173833 -0.02901,-0.33941 -0.07031,-0.5 C 41.707734,20.362989 40.934157,21 40,21 l -25,0 c -0.934157,0 -1.707734,-0.637011 -1.929688,-1.5 z m -8.9999995,8 C 4.0290109,27.660591 4,27.826164 4,28 c 0,1.10801 0.89199,2 2,2 l 25,0 c 1.10801,0 2,-0.89199 2,-2 0,-0.173836 -0.02901,-0.339409 -0.07031,-0.5 C 32.707738,28.362997 31.934174,29 31,29 L 6,29 C 5.0658263,29 4.2922618,28.362997 4.0703125,27.5 Z m 6.9999995,8 C 11.02901,35.66059 11,35.826167 11,36 c 0,1.10799 0.89201,2 2,2 l 29,0 c 1.10799,0 2,-0.89201 2,-2 0,-0.173833 -0.02901,-0.33941 -0.07031,-0.5 C 43.707734,36.362989 42.934157,37 42,37 l -29,0 c -0.934157,0 -1.707734,-0.637011 -1.929688,-1.5 z"
     id="path36"
     style="opacity:0.1;fill:#172525" />
</svg>

<?xml version="1.0" encoding="UTF-8" standalone="no"?>
<svg xmlns="http://www.w3.org/2000/svg" xmlns:xlink="http://www.w3.org/1999/xlink" width="48" height="48">
 <defs>
  <linearGradient id="0">
   <stop stop-color="#eff1f1"/>
   <stop offset="1" stop-color="#b0b8b8"/>
  </linearGradient>
  <linearGradient xlink:href="#0" id="1" x1="418.57147" y1="511.79797" x2="418.57144" y2="539.79797" gradientUnits="userSpaceOnUse" gradientTransform="translate(-384.57147,-501.79797)"/>
  <linearGradient xlink:href="#3" id="2" y1="502.798" x2="0" y2="582.79797" gradientUnits="userSpaceOnUse" gradientTransform="matrix(1.0666667,0,0,1.0666667,-25.904809,-34.919942)"/>
  <linearGradient id="3">
   <stop stop-color="#f0ff01"/>
   <stop offset="1" stop-color="#ff9701"/>
  </linearGradient>
  <linearGradient xlink:href="#5" id="4" y1="507.798" x2="0" y2="547.79797" gradientUnits="userSpaceOnUse" gradientTransform="matrix(1.0196041,0,0,1.0196041,-6.6763524,-10.268618)"/>
  <linearGradient id="5">
   <stop stop-color="#faffa5"/>
   <stop offset="1" stop-color="#edf573"/>
  </linearGradient>
 </defs>
 <metadata/>
 <g transform="translate(-384.57143,-499.798)">
  <g transform="matrix(0.75000047,0,0,0.75000047,101.14267,130.94927)">
   <rect ry="21.333321" y="502.46466" x="388.57141" height="42.666668" width="42.666641" fill="url(#2)" rx="21.33332"/>
   <rect y="506.46466" x="392.57141" height="34.666634" width="34.666615" fill="url(#4)" rx="17.333307"/>
  </g>
  <path d="M 10 10 C 8.8920011 10 8 10.892001 8 12 C 8 13.107999 8.8920011 14 10 14 L 29 14 C 30.107999 14 31 13.107999 31 12 C 31 10.892001 30.107999 10 29 10 L 10 10 z M 15 18 C 13.892007 18 13 18.892007 13 20 C 13 21.107993 13.892007 22 15 22 L 40 22 C 41.107993 22 42 21.107993 42 20 C 42 18.892007 41.107993 18 40 18 L 15 18 z M 6 26 C 4.8919927 26 4 26.891993 4 28 C 4 29.108007 4.8919927 30 6 30 L 31 30 C 32.108007 30 33 29.108007 33 28 C 33 26.891993 32.108007 26 31 26 L 6 26 z M 13 34 C 11.892007 34 11 34.892007 11 36 C 11 37.107993 11.892007 38 13 38 L 42 38 C 43.107993 38 44 37.107993 44 36 C 44 34.892007 43.107993 34 42 34 L 13 34 z " transform="translate(384.57143,499.798)" fill="url(#1)"/>
  <path d="M 8.0703125 11.5 C 8.0290105 11.660591 8 11.826165 8 12 C 8 13.108 8.892 14 10 14 L 29 14 C 30.108 14 31 13.108 31 12 C 31 11.826165 30.970989 11.660591 30.929688 11.5 C 30.707736 12.362993 29.934165 13 29 13 L 10 13 C 9.0658348 13 8.2922638 12.362993 8.0703125 11.5 z M 13.070312 19.5 C 13.02901 19.66059 13 19.826167 13 20 C 13 21.10799 13.89201 22 15 22 L 40 22 C 41.10799 22 42 21.10799 42 20 C 42 19.826167 41.97099 19.66059 41.929688 19.5 C 41.707734 20.362989 40.934157 21 40 21 L 15 21 C 14.065843 21 13.292266 20.362989 13.070312 19.5 z M 4.0703125 27.5 C 4.0290109 27.660591 4 27.826164 4 28 C 4 29.10801 4.89199 30 6 30 L 31 30 C 32.10801 30 33 29.10801 33 28 C 33 27.826164 32.970989 27.660591 32.929688 27.5 C 32.707738 28.362997 31.934174 29 31 29 L 6 29 C 5.0658263 29 4.2922618 28.362997 4.0703125 27.5 z M 11.070312 35.5 C 11.02901 35.66059 11 35.826167 11 36 C 11 37.10799 11.89201 38 13 38 L 42 38 C 43.10799 38 44 37.10799 44 36 C 44 35.826167 43.97099 35.66059 43.929688 35.5 C 43.707734 36.362989 42.934157 37 42 37 L 13 37 C 12.065843 37 11.292266 36.362989 11.070312 35.5 z " transform="translate(384.57143,499.798)" opacity="0.1" fill="#172525"/>
 </g>
</svg>
